X: 1
M: 3/4
K: F
Q: 1/4=60
L: 1/4
C | A2 G | FAG | F3 | D2 F | E2 D | CED | C3 | A,2 C | A2A | AGA | B2 A | G2F | E2 D | CDE | F3 :]|
w: A-qui vem as três ro-si-nhas qua-tro ou cin-co ou se-is se~o se-nhor nos dá li-cen - sa vi-mos lhe can-tar os reis
